X:1
T:Title
%%score { ( 1 4 ) | ( 2 3 ) }
L:1/8
Q:1/4=100
M:4/4
K:C
V:1 treble nm="Grand Piano"
V:4 treble 
V:2 treble 
V:3 treble 
V:1
 c2 B2 A2 [Ac]2 | cBAB [EGc]4 | [EGc]2 [DGB]2 [CEA]2 [DFA]2 | [CA]^G^FG [CEA]4 | %4
w: C.~Gounod * * *||||
 [D^FA]2 [DAd]2 .[DGc]2 [CA]G | z2 ^F2 z4 | z4 z2 A2 | G2 c2 ABcd | c4 B2 G2 | z4 z2 A2 | %10
w: ||||||
 G2 c2 AB .[FAc]2 | [EGc]4 [DGB]2 z2 | [Cc]2- [CAc]2 e2 dc | c4 B4 | [Ec]3 [Ec] [Ec]2 z2 |] %15
w: |||||
V:2
 [CEG]2 [G,DG]2 [A,CE]2 [F,F]2 | .E2 .C2[K:bass] z4 | C2 G,2 A,2 D,2 | z B,[E,E]-[E,B,E] A,4 | %4
 D,2 F,2 z[K:treble] B[K:bass] z B, | [D,A,D]2 .[D,B,D]2 [G,B,D]4 | %6
 [C,G,]2 [E,G,][E,G,] [D,G,]2 .[F,A,D]2 | [E,C]2 [A,CE]2 [F,CF]2 D,2 | [G,EG]4 [G,DG]2 [G,B,F]2 | %9
 [C,G,]2 [E,G,]2 [D,G,]2 .[F,A,D]2 | [E,C]2 [A,CE]2 [F,CF]2 z[K:treble] d | G,4 G,2 z2 | %12
 E,2 F,2[K:treble] [G,CG]2 [A,D^F]2 | [G,EG]4 [G,DF]4 | [C,C]3 [C,C] [C,C]2 z2 |] %15
V:3
 x8 | [G,G]-[G,DG][G,G]-[G,DG][K:bass] C,4 | x8 | E,2 .A,2 z4 | z4 G,2[K:treble][K:bass] C,2 | x8 | %6
 x8 | x8 | x8 | x8 | z4 z2 D,2[K:treble] | x8 | x4[K:treble] x4 | x8 | x8 |] %15
V:4
 x8 | x8 | x8 | E2 z2 z4 | z4 z2 E2 | G2 z C G4 | [Ec]2 [Gc][Gc] [FB]2 z B, | z4 z2 [FA]2 | x8 | %9
 [Ec]2 [Gc]2 [FB]2 z B, | x8 | x8 | G2 z2 z4 | x8 | x8 |] %15

